X:0685
T:Soldier's Dance.
M:6/8
L:1/8
Q:3/8=120
I: :: :|
N:rest added at the start of the second part
Z:Jack Campin * www.campin.me.uk * 2009
K:A
E|A2A AGA|B2B e2d|c2A AGA|GBG EFG|
  A2A AGA|B2B e2d|cBA BAG|A2A A2:|
z|e2e cde|f2f f3 |g2g efg|a2a a3 |
  e2e cde|fga agf|edc BAG|A2A A2:|

